X: 1970
T: Yavru Kuşlar Ötüşür
C: ?
O: Turkey
F: http://compmusic.upf.edu/node/140
N: rast--cocuksarkisi--sofyan--yavru_kuslar--
N: makam= rast
N: form= cocuksarkisi
N: usul= sofyan = 4/4
M: 4/4
L: 1/16
K: C _1/4B ^f  
Q: 1/4=96
%%MIDI tuningsystem comma53
B2c2 d2e2 d2^c2 d4  | A2B2 c2d2 c2B2 A4  | \
w:  Yav ru  kuş lar_ ö tü şür    |  Dağ lar da  tar la lar da    | 
B2c2 d2e2 d2^c2 d4  | 
w:  Her  şe ye  neş e  ve rir    | 
e2d2 c2B2 A2B2 G4  | g2f2 g2f2 g2e2 f4  | \
w:  O  gü zel  ilk ba har da    |  Her  şey  gü ler_ eğ le nir    | 
e2f2 g2f2 e2f2 d4  | 
w:  Ta bi at  neş e le nir    | 
d2e2 f2e2 d2c2 B2d2  | e2d2 c2B2 A2B2 d4  | \
w:  Oy na ma yan  ço cuk la ra    |  El bet te  tem bel  de nir    | 
g2f2 g2f2 g2e2 f4  | 
w:  Her  şey  gü ler_ eğ le nir    | 
e2f2 g2f2 e2f2 d4  | d2e2 f2e2 d2c2 B2d2  | \
w:  Ta bi at  neş e le nir    |  Oy na ma yan  ço cuk la ra    | 
e2d2 c2B2 A2B2 G4  | 
w:  El bet te  tem bel  de nir    | 
B2c2 d2e2 d2^c2 d4  | A2B2 c2d2 c2B2 A4  | \
w:  Yav ru  kuş lar_ ö tü şür    |  Dağ lar da  tar la lar da    | 
B2c2 d2e2 d2^c2 d4  | 
w:  Her  şe ye  neş e  ve rir    | 
e2d2 c2B2 A2B2 G4  | g2f2 g2f2 g2e2 f4  | \
w:  O  gü zel  ilk ba har da    |  Her  şey  gü ler_ eğ le nir    | 
e2f2 g2f2 e2f2 d4  | 
w:  Ta bi at  neş e le nir    | 
d2e2 f2e2 d2c2 B2d2  | e2d2 c2B2 A2B2 d4  | \
w:  Oy na ma yan  ço cuk la ra    |  El bet te  tem bel  de nir    | 
g2f2 g2f2 g2e2 f4  | 
w:  Her  şey  gü ler_ eğ le nir    | 
e2f2 g2f2 e2f2 d4  | d2e2 f2e2 d2c2 B2d2  | \
w:  Ta bi at  neş e le nir    |  Oy na ma yan  ço cuk la ra    | 
e2d2 c2B2 A2B2 G4  | 
w:  El bet te  tem bel  de nir    | 
|


